packages/core/src/svgs/tokens/mono/FRAX.svg

<svg width="24" height="24" viewBox="0 0 24 24" fill="none" xmlns="http://www.w3.org/2000/svg">
<path d="M4.7 16.6733C4.44 16.9533 3.98001 17.4534 3.45333 18.0067C2.65333 18.8467 2.00666 19.54 2 19.5601C2.79999 20.36 3.61333 21.1533 4.43333 21.9267L4.52 22L5.78001 20.6667L7.16668 19.2C8.58483 20.152 10.2527 20.6636 11.9606 20.6706C13.6686 20.6778 15.3406 20.1801 16.7666 19.24L16.8068 19.2866C17.7267 20.1867 18.6534 21.08 19.5867 21.9667C19.6133 21.9734 22.0067 19.44 22 19.4134C22 19.4 20.3534 17.8067 19.3467 16.8467L19.2533 16.7467C20.1777 15.3332 20.6689 13.6802 20.6666 11.9914C20.6641 10.3023 20.1683 8.65096 19.24 7.24001L20.4867 5.91333C20.9632 5.42475 21.4279 4.92461 21.8801 4.41334C21.86 4.36 19.4067 2.01333 19.3734 2.01333C19.3534 2.01333 18.7333 2.65333 18 3.42666C17.44 4.02667 16.9533 4.53334 16.7467 4.74666C15.3571 3.83736 13.7356 3.34641 12.0751 3.33223C10.4145 3.31806 8.78486 3.78124 7.38001 4.66666L7.29335 4.57333L6.09334 3.41333L5.76 3.1L4.86668 2.23333L4.62667 2L3.44 3.26666C2.78 3.96 2.23999 4.54001 2.23999 4.55334C2.23333 4.56667 2.82 5.15334 3.54666 5.85334L4.84667 7.10668C3.88588 8.51084 3.35964 10.1667 3.33355 11.868C3.30748 13.5692 3.7827 15.2405 4.7 16.6733ZM17.3333 12.0001C17.3333 13.4145 16.7714 14.771 15.7712 15.7712C14.771 16.7714 13.4145 17.3333 12.0001 17.3333C10.5855 17.3333 9.22901 16.7714 8.22877 15.7712C7.22857 14.771 6.66668 13.4145 6.66668 12.0001C6.66668 10.5855 7.22857 9.22901 8.22877 8.22877C9.22901 7.22857 10.5855 6.66668 12.0001 6.66668C13.4145 6.66668 14.771 7.22857 15.7712 8.22877C16.7714 9.22901 17.3333 10.5855 17.3333 12.0001Z" fill="white"/>
</svg>

<svg xmlns="http://www.w3.org/2000/svg" width="24" height="24" fill="none" viewBox="0 0 24 24">
    <path fill="#fff" d="M4.7 16.673c-.26.28-.72.78-1.247 1.334-.8.84-1.446 1.533-1.453 1.553.8.8 1.613 1.593 2.433 2.367L4.52 22l1.26-1.333L7.167 19.2a8.665 8.665 0 0 0 9.6.04l.04.047q1.38 1.35 2.78 2.68c.026.006 2.42-2.527 2.413-2.554 0-.013-1.647-1.606-2.653-2.566l-.094-.1a8.67 8.67 0 0 0-.013-9.507l1.247-1.327q.714-.732 1.393-1.5c-.02-.053-2.473-2.4-2.507-2.4-.02 0-.64.64-1.373 1.414-.56.6-1.047 1.106-1.253 1.32a8.67 8.67 0 0 0-9.367-.08l-.087-.094-1.2-1.16L5.76 3.1l-.893-.867L4.627 2 3.44 3.267c-.66.693-1.2 1.273-1.2 1.286-.007.014.58.6 1.307 1.3l1.3 1.254a8.67 8.67 0 0 0-.147 9.566M17.333 12a5.333 5.333 0 1 1-10.666 0 5.333 5.333 0 0 1 10.666 0"/>
</svg>
